public/icons/clock.svg

<svg width="16" height="16" viewBox="0 0 16 16" fill="none" xmlns="http://www.w3.org/2000/svg">
<path d="M13.8333 0.5H2.16667V2.16667H0.5V13.8333H2.16667V15.5H13.8333V13.8333H15.5V2.16667H13.8333V0.5ZM13.8333 2.16667V13.8333H2.16667V2.16667H13.8333ZM7.16667 3.83333H8.83333V8.83333H12.1667V10.5H7.16667V3.83333Z" fill="#BDBDBD"/>
</svg>

<svg xmlns="http://www.w3.org/2000/svg" width="16" height="16" fill="none" viewBox="0 0 16 16"><path fill="#bdbdbd" d="M13.833.5H2.167v1.667H.5v11.666h1.667V15.5h11.666v-1.667H15.5V2.167h-1.667zm0 1.667v11.666H2.167V2.167zM7.167 3.833h1.666v5h3.334V10.5h-5z"/></svg>
